X: 2
T: The Fairy Dance
R: reel
M: 4/4
L: 1/8
K: Dmaj
|~f2dg ~f2dg|~f2dB cdeg|~f2df gfed|cABc dfag|
fAdg fAdg|fAdB cdeg|(3fga df gfed|cABc d2~f2|
aAdf bagf|(3gfe ce aeAg|fdBd gfed|cABc d2~f2|
a2 (3fga bagf|(3gfe ce Aceg|fdBd gfed|cA (3GFE D4||

